X:5
T:5 From Night Till Morn
C:Welch MS
N:Meic's version didn't load completely.
N:This is an attempt at reconstruction from what there was
N:and listening to Will and Dan's CD
I:abc2nwc
M:C
L:1/8
K:G
AG|F2F2F2D2|EDEF D2EF|GFED DEFG|A3B/2G/2 F2AG|
F2F2F2D2|EDEF D2EF|GFED DEFD|E4D2:|
z2|DEFG A2A2|A2B2A4|B2A2d2F2|A3B/2G/2 F2AG|
F2F2F2D2|EDEF D2EF|GFED DEFG|A3B/2G/2 F2AG|
F2F2F2D2|EDEF D2EF|GFED DEFD|E4D2:|


